X:1
T:Te lucis 2
T:André Vierendeels
T:(21/02/18)
T:ad voces aequales
T:Early melody
T:Te lucis 2
T:©
T:©
C:André Vierendeels
Z:©
%%score [ 1 2 3 4 ]
L:1/8
Q:1/4=120
M:2/2
K:F
V:1 treble-8 nm="Tenor 1" snm="T 1"
V:2 treble-8 nm="Tenor 2" snm="T 2"
V:3 treble-8 nm="Tenor 3" snm="T 3"
V:4 bass nm="Bass" snm="B"
V:1
 z4 d4 | d2 f2 d2 ^c2 | d4 e4 | f4 e4 | !fermata!d4 f4 | f4 f4 | e4 e4 | d4 f4 | !fermata!e4 e4 | %9
w: Te|lu- * * cis|an- te|ter- mi-|num, re-|rum Cre-|a- tor,|po- sci-|mus, ut|
 g4 g4 | g4 e4 | f4 e4 | !fermata!d4 e4 | f4 e4 | d4 e4 | f4 e4 | !fermata!d8 |] %17
w: so- li-|ta cle-|men- ti-|a sis|prae- sul|et cu-|sto- di-|a.|
V:2
 z4 A4 | B2 A2 A4 | A2 d2 c4 | A3 d d2 ^c2 | !fermata!A4 c4 | d4 d4 | c2 =B2 ^c4 | d4 c4 | %8
w: Te|lu- * cis|an- * te|ter- * mi- *|num, re-|rum Cre-|a- * tor,|po- sci-|
 !fermata!c4 c4 | e4 d4 | e4 =B4 | c4 G4 | !fermata!^F4 G4 | c4 d2 ^c2 | d4 ^c4 | d2 A2 d2 ^c2 | %16
w: mus, ut|so- li-|ta cle-|men- ti-|a, sis|prae- sul _|et cu-|sto- * di- *|
 !fermata!d8 |] %17
w: a.|
V:3
 z4 F4 | G2 F2 E4 | F4 G4 | CDEG A4 | !fermata!^F4 A4 | A4 B4 | G4 A4 | F4 A4 | !fermata!G4 A4 | %9
w: Te|lu- * cis|an- te|ter- * * * mi-|num, re-|rum Cre-|a- tor,|po- sci-|mus, ut|
 G4 B4 | c4 G4 | A4 G4 | !fermata!A4 E4 | A4 A4 | A2 B2 A4 | A4 E4 | !fermata!^F8 |] %17
w: so- li-|ta cle-|men- ti-|a, sis|prae- sul|et¨ _ cu-|sto- di-|a;|
V:4
 z4 D,4 | G,2 D,2 A,,4 | D,2 B,,2 C,4 | F,,3 G,, A,,4 | !fermata!D,4 F,4 | D,4 B,,4 | %6
w: Te|lu- * cis|an- * te|ter- * mi-|num, re-|rum Cre-|
 C,2 E,2 A,,4 | D,4 F,4 | !fermata!C,4 A,,4 | C,4 G,4 | C,4 E,4 | F,4 C,4 | !fermata!D,4 C,4 | %13
w: a- * tor,|po- sci-|mus, ut|so- li-|ta cle-|men- ti-|a, sis|
 F,4 A,4 | D,2 B,,2 A,,4 | F,,4 A,,4 | !fermata!D,8 |] %17
w: prae- sul|et _ cu-|sto- di-|a.|

